icons/travis.svg

<svg width="16" height="16" viewBox="0 0 16 16" fill="none" xmlns="http://www.w3.org/2000/svg">
<path d="M2.6 10.2L2 7.2L2.6 6.6L8 6L13.5 7.5L14 9V10.2L13.4 10.8L11 13.2L8.6 15L6.8 14.4L5 13.2L3.8 11.4L3.2 10.8L2.6 10.2Z" fill="#E5CCAC"/>
<path d="M4.875 13.6L3.5 12.5L5.5 12.4L7 11.5H9.5L11.5 12H13L11.75 13.2L9.875 13.6L8.625 13.2H8L6.125 14L4.875 13.6Z" fill="#CB3349"/>
<path d="M2 7.25V6.08333L2.57143 5.5L3.71429 3.75L4.85714 2.58333L7 1.5H8.5H10L11 2L12.5 3.5L13.5 5L14.5 6V7.83333L12.8571 9V7.83333L11.1429 7.25H7.71429L3.14286 7.83333L2.5 8L2 7.25Z" fill="#F4EDAE"/>
<path d="M3.55556 10.4286V8.71429L3 7.57143L6.88889 7H13.5L13 10L11.8889 11L9.66667 10.4286L8.5 9L7.44444 9.28571L6.88889 10.4286L4.66667 11L3.55556 10.4286Z" fill="#D6B58C"/>
<path d="M2 9.5L3.2 7.5L5 7L2 9.5Z" fill="#CB3349"/>
<path d="M6 8L6.5 7H8.4H9H12L9 8V7H8.4L6 8Z" fill="#CB3349"/>
<path d="M7.97795 1.00053C7.86263 1.00172 7.70604 1.00767 7.51182 1.02908C7.12459 1.07191 6.59899 1.17183 6.02604 1.40976C4.89956 1.87847 3.58251 2.89084 2.76314 4.94056C2.44511 5.06309 2.12829 5.21298 1.86973 5.40689C1.83331 5.43544 1.80297 5.47113 1.78233 5.51158C1.67915 5.72214 1.65973 5.95292 1.64638 6.20631C1.63302 6.4597 1.63667 6.71904 1.6658 6.9296C1.69372 7.12827 1.75684 7.38999 1.83089 7.63386C1.8673 7.7552 1.90129 7.87416 1.94742 7.97647C1.99112 8.07164 2.01782 8.15967 2.15135 8.25246L1.08314 10.1083L1.05401 10.1559C0.956896 10.295 0.994526 10.4842 1.13655 10.5794C1.27857 10.6745 1.47158 10.6377 1.56869 10.4985C1.56869 10.4985 1.84181 10.1844 2.27759 9.75615C2.30915 9.97028 2.35042 10.2094 2.41355 10.3938C2.46696 10.5508 2.55436 10.759 2.64661 10.9458C2.69274 11.0397 2.73522 11.1242 2.79228 11.2027C2.82019 11.242 2.85297 11.286 2.8991 11.3264C2.94522 11.3669 3.01563 11.4216 3.15158 11.4216C3.27904 11.4216 3.40528 11.4026 3.54973 11.3835C3.55459 11.3824 3.55459 11.3847 3.55944 11.3835C3.59343 11.5049 3.60072 11.5632 3.68569 11.7737C3.75124 11.9355 3.83742 12.108 3.93817 12.2781C3.70511 12.2686 3.5206 12.2591 3.5206 12.2591C3.39921 12.2508 3.28389 12.3115 3.22563 12.4161C3.16736 12.5208 3.17586 12.6493 3.24869 12.7445C3.68447 13.3119 4.14939 13.7152 4.56939 13.9817C4.98939 14.2482 5.35355 14.3909 5.67644 14.3909C5.75899 14.3909 5.84396 14.3814 5.92893 14.3719C5.98112 14.4028 6.9935 15 8.16246 15C9.67859 15 10.7893 14.0578 10.9398 13.9246C11.2421 13.8615 11.5334 13.7818 11.7361 13.7057C11.9728 13.6165 12.1537 13.4511 12.3382 13.2584C12.5227 13.0657 12.706 12.8444 12.8626 12.6303C13.1758 12.202 13.4064 11.8023 13.4064 11.8023C13.4671 11.6976 13.4586 11.5668 13.3858 11.4704C13.3117 11.3728 13.1867 11.3276 13.0665 11.355L13.1442 11.1076L13.7366 11.0409C13.8446 11.0267 13.9356 10.9577 13.9793 10.8601C13.9793 10.8601 14.159 10.4878 14.2318 10.1749C14.2695 10.0155 14.3022 9.7728 14.3289 9.53726C14.3556 9.30171 14.3775 9.12922 14.3775 9.00431C14.3775 8.82467 14.2962 8.76995 14.2513 8.72831C14.2063 8.68668 14.1602 8.66169 14.1153 8.63314C14.0425 8.58794 13.9624 8.54868 13.8822 8.50942C13.9684 8.48444 14.057 8.46065 14.1347 8.43329C14.227 8.40117 14.2974 8.375 14.3872 8.31908C14.3921 8.31551 14.3921 8.31313 14.3969 8.30957C14.5232 8.22629 14.5608 8.14183 14.6106 8.05261C14.6628 7.95982 14.7125 7.85989 14.7562 7.74806C14.8436 7.52442 14.9128 7.27578 14.9504 7.07236C15.0002 6.79994 15.0111 6.50015 14.9893 6.22535C14.9674 5.95055 14.9322 5.71976 14.8339 5.52109C14.8121 5.47589 14.7781 5.43663 14.7368 5.40689C14.4503 5.19157 14.0947 5.03454 13.7463 4.91201C13.0216 2.96341 11.6718 1.96055 10.4834 1.47638C9.87402 1.22775 9.30107 1.11473 8.88107 1.05763C8.67107 1.02908 8.50234 1.01599 8.3761 1.01005C8.24986 1.0041 8.15032 1.00053 8.16246 1.00053C8.19645 1.00053 8.14789 1.00172 8.1139 1.00053C8.07991 0.999339 8.03621 1.00053 7.97795 1.00053ZM7.98766 1.60962C8.03621 1.60962 8.06656 1.60843 8.09448 1.60962C8.1224 1.6108 8.11754 1.60962 8.16246 1.60962C8.19645 1.60962 8.23772 1.61437 8.34697 1.61913C8.45622 1.62389 8.61402 1.63103 8.80338 1.6572C9.18211 1.70835 9.69315 1.81423 10.2406 2.03788C11.2202 2.4364 12.303 3.19776 12.9888 4.69312C12.6647 4.60984 12.4062 4.55036 12.4062 4.55036C12.3782 4.54322 12.3479 4.53965 12.3188 4.54084C12.1476 4.53609 12.0032 4.66813 11.9983 4.83587C11.9934 5.00361 12.1282 5.14517 12.2993 5.14993C12.2993 5.14993 12.6526 5.21179 13.0956 5.34027C13.1648 5.36049 13.2377 5.3831 13.3093 5.40689C13.3129 5.40808 13.3154 5.41522 13.319 5.41641C13.3251 5.41997 13.3324 5.42354 13.3384 5.42592C13.3967 5.47113 13.4683 5.49492 13.5424 5.49254C13.8215 5.59961 14.0922 5.72809 14.2901 5.8637C14.3156 5.94341 14.352 6.07902 14.3678 6.27293C14.386 6.50372 14.3751 6.77138 14.3387 6.96767C14.3119 7.11519 14.2464 7.34002 14.1736 7.52917C14.1372 7.62315 14.0983 7.71 14.0667 7.7671C14.051 7.79565 14.0352 7.81706 14.0279 7.8242C14.0145 7.83015 13.983 7.84086 13.9211 7.86227C13.8762 7.87773 13.8191 7.89439 13.7657 7.90985L13.9017 7.40545C13.9441 7.24248 13.8446 7.07593 13.6783 7.03429C13.6783 7.03429 11.5613 6.47279 8.16246 6.47279C7.62593 6.47279 7.14038 6.4942 6.67667 6.52037C6.67303 6.52037 6.67061 6.52037 6.66696 6.52037C6.64147 6.51443 6.61598 6.51086 6.58928 6.51086C6.57592 6.51324 6.56257 6.51681 6.55043 6.52037C6.54436 6.52037 6.53708 6.52037 6.53101 6.52037C6.48124 6.51562 6.43147 6.52156 6.38534 6.53941C4.30476 6.68216 3.09574 7.01526 2.99621 7.04381C2.99378 7.045 2.96829 7.04381 2.96707 7.04381C2.93673 7.05214 2.90638 7.06522 2.87967 7.08188C2.8736 7.08426 2.86632 7.08782 2.86025 7.09139C2.86025 7.09496 2.86025 7.09734 2.86025 7.10091C2.85418 7.10329 2.8469 7.10686 2.84083 7.11043C2.83719 7.114 2.83476 7.11638 2.83112 7.11994C2.82505 7.12232 2.81777 7.12589 2.8117 7.12946C2.8117 7.13303 2.8117 7.13541 2.8117 7.13898C2.80563 7.14136 2.79834 7.14493 2.79228 7.14849C2.79228 7.15206 2.79228 7.15444 2.79228 7.15801C2.78499 7.16396 2.77892 7.16991 2.77285 7.17705C2.76921 7.18299 2.76557 7.19013 2.76314 7.19608C2.75586 7.20798 2.74979 7.22106 2.74372 7.23415L2.49123 7.66241C2.46696 7.60293 2.44632 7.54107 2.42326 7.46256C2.36014 7.25199 2.30794 6.99741 2.2873 6.84395C2.26545 6.68692 2.25696 6.45019 2.26788 6.23487C2.27759 6.05047 2.30551 5.91248 2.32615 5.84467C2.63083 5.63886 3.1006 5.44615 3.5206 5.32124C3.96852 5.188 4.32661 5.12138 4.32661 5.12138C4.48078 5.08331 4.58031 4.93699 4.55725 4.78353C4.5354 4.62888 4.39823 4.51586 4.23921 4.52181C4.2295 4.52419 4.21979 4.52776 4.21008 4.53133C4.21008 4.53133 3.91632 4.58605 3.54973 4.6836C4.30598 3.10378 5.35962 2.34956 6.26881 1.97126C6.775 1.7607 7.23991 1.67623 7.5798 1.63817C7.74974 1.61913 7.89055 1.6108 7.98766 1.60962ZM6.91945 2.81827V3.7319H7.54095V3.42736H7.85171V5.25462H7.54095V5.8637H8.78396V5.25462H8.47321V3.42736H8.78396V3.7319H9.40547V2.81827H6.91945ZM7.46327 7.10091C7.178 7.22582 6.91338 7.35073 6.71552 7.45304L6.77378 7.12946C6.99471 7.11756 7.22413 7.10686 7.46327 7.10091ZM9.74535 7.12946C10.0974 7.14731 10.4263 7.16991 10.7262 7.19608C10.4239 7.30671 10.101 7.40426 9.80362 7.47207C9.63003 7.51133 9.63732 7.503 9.49286 7.52917C9.54627 7.45304 9.6009 7.3769 9.64824 7.30077C9.68466 7.24129 9.71622 7.18775 9.74535 7.12946ZM6.11344 7.25318L5.98719 7.9384C5.9617 8.05737 6.01026 8.1799 6.11101 8.25127C6.21297 8.32146 6.34771 8.32503 6.45332 8.26198C6.45332 8.26198 7.70725 7.5839 8.90049 7.28173C8.88957 7.2972 8.88229 7.31385 8.87136 7.32932C8.69656 7.56486 8.53148 7.7671 8.53148 7.7671C8.45257 7.86227 8.44043 7.99551 8.4987 8.10376C8.55818 8.21202 8.67835 8.27388 8.80338 8.26198C8.80338 8.26198 9.30957 8.20607 9.93957 8.06212C10.5635 7.91937 11.3161 7.69691 11.8623 7.3198C12.5785 7.42092 13.0374 7.52442 13.2122 7.56724L13.0374 8.2144C13.007 8.26674 12.9937 8.32622 12.9985 8.3857L12.6295 9.74663L11.8041 10.4128L9.62882 10.1463L9.07529 8.79493C9.02795 8.67835 8.91142 8.6034 8.78396 8.60459H7.54095C7.4135 8.6034 7.29696 8.67835 7.24962 8.79493L6.68639 10.1749L4.78303 10.5841L3.8702 10.1178L3.59829 8.61411C4.33754 8.05856 5.20789 7.53036 6.11344 7.25318ZM4.34603 7.38642C3.74153 7.73498 3.19407 8.13945 2.7243 8.52846C2.70973 8.54035 2.70973 8.53559 2.69517 8.54749L3.23898 7.61483C3.36158 7.58033 3.69661 7.49705 4.34603 7.38642ZM10.3863 8.49039C10.0925 8.49991 9.90437 8.87583 9.92015 9.32788C9.93593 9.77875 10.1799 9.77637 10.4737 9.76566C10.8682 9.75853 11.0818 9.63362 11.2797 9.7276C11.2773 9.71689 11.2226 9.53369 10.9495 9.56581C10.9811 9.498 10.9884 9.41472 10.9786 9.28981C10.9422 8.83895 10.68 8.48087 10.3863 8.49039ZM6.10373 8.59508C5.80997 8.59745 5.53199 8.971 5.5502 9.42305C5.55505 9.54082 5.57083 9.62886 5.59875 9.68953C5.34263 9.75258 5.27222 9.90842 5.26858 9.91793C5.43003 9.83228 5.61453 9.84061 5.89979 9.8418C5.93014 9.84299 5.95442 9.84299 5.98719 9.8418C6.01511 9.8418 6.04425 9.84299 6.07459 9.8418C6.36835 9.83942 6.61355 9.86559 6.6087 9.41354C6.60384 8.96148 6.39748 8.5927 6.10373 8.59508ZM10.3571 8.7759C10.4409 8.77352 10.5113 8.83776 10.5125 8.91865C10.5137 8.99955 10.4397 9.06855 10.3571 9.07092C10.2746 9.07211 10.2127 8.99955 10.2115 8.91865C10.2091 8.83776 10.2746 8.77709 10.3571 8.7759ZM6.15228 8.88058C6.23482 8.87821 6.29552 8.94126 6.29795 9.02334C6.30037 9.10423 6.23482 9.17323 6.15228 9.17561C6.06852 9.17799 6.00904 9.11375 6.00662 9.03286C6.00419 8.95196 6.06852 8.88296 6.15228 8.88058ZM13.4744 8.98527C13.512 9.00193 13.5132 9.00431 13.5521 9.02334C13.6261 9.05903 13.6941 9.0971 13.7463 9.12803C13.7402 9.20773 13.7269 9.30409 13.7074 9.47064C13.6807 9.69667 13.6504 9.95362 13.6298 10.0417C13.5994 10.1725 13.5266 10.3284 13.4744 10.4509L12.8626 10.527C12.7412 10.5401 12.638 10.6222 12.6004 10.7364L12.3479 11.5453C12.2544 11.5691 12.1561 11.5941 12.076 11.612C11.9522 11.6393 11.8284 11.6595 11.8526 11.6595C11.6608 11.6595 10.8403 11.6512 10.7262 11.65C10.6776 11.6274 10.4688 11.5382 10.2018 11.4121C10.0537 11.3419 9.9068 11.2622 9.78419 11.2027C9.66159 11.1432 9.54749 11.0861 9.55113 11.0885C9.49651 11.054 9.43217 11.0374 9.36662 11.0409C9.34599 11.0421 9.32778 11.0481 9.30836 11.0505C9.33627 10.9458 9.30471 10.8351 9.22703 10.759C9.14934 10.6829 9.03645 10.6519 8.92963 10.6793C8.81916 10.7019 8.72934 10.7828 8.69656 10.8887C8.69656 10.8887 8.665 11.0064 8.57032 11.1266C8.47564 11.2467 8.35911 11.3455 8.16246 11.3455C7.74853 11.3455 7.61864 10.9458 7.61864 10.9458C7.6065 10.8292 7.52639 10.7293 7.4135 10.69C7.30061 10.6507 7.17436 10.6793 7.08939 10.7614C7.00563 10.8447 6.9765 10.9684 7.01656 11.079C6.93159 11.0719 6.84662 11.0992 6.7835 11.1551L5.92893 11.926C5.89858 11.9379 5.69708 12.0259 5.41424 12.1164C5.16661 12.1961 4.88014 12.2651 4.70534 12.2877C4.5354 12.1068 4.37638 11.8142 4.26835 11.5453C4.1421 11.2313 4.08384 10.9743 4.08384 10.9743C4.07777 10.9481 4.06806 10.922 4.0547 10.8982L4.59852 11.1742C4.66407 11.2087 4.73933 11.2182 4.81216 11.2027L6.98743 10.7269C7.08818 10.7067 7.17072 10.6388 7.21078 10.5461L7.7546 9.21368H8.57032L9.11414 10.5461C9.15662 10.6507 9.25373 10.7233 9.36662 10.7364L11.8526 11.0409C11.9364 11.0505 12.0202 11.0267 12.0857 10.9743L13.0956 10.1559C13.1478 10.1142 13.1855 10.0583 13.2025 9.99407L13.4744 8.98527ZM3.04476 9.05189L3.29725 10.3747C3.31424 10.464 3.37129 10.5401 3.45262 10.5841L3.72453 10.7364C3.72453 10.7364 3.60072 10.7554 3.46233 10.7745C3.381 10.7852 3.34216 10.7864 3.27782 10.7935C3.25719 10.759 3.22563 10.7316 3.20014 10.6793C3.12488 10.527 3.04962 10.3319 3.00592 10.2034C2.97436 10.1107 2.92944 9.85013 2.8991 9.64194C2.86875 9.43376 2.85054 9.26126 2.85054 9.26126C2.85054 9.25175 2.85054 9.24223 2.85054 9.23271C2.91852 9.17323 2.97314 9.11256 3.04476 9.05189ZM9.3472 11.6691C9.39697 11.694 9.43217 11.7202 9.50258 11.7547C9.63003 11.8166 9.79026 11.8832 9.93957 11.9546C10.2382 12.0961 10.5125 12.2306 10.5125 12.2306C10.555 12.2496 10.6011 12.2603 10.6485 12.2591C10.6485 12.2591 11.6354 12.2686 11.8526 12.2686C11.9825 12.2686 12.0748 12.2425 12.2119 12.2115C12.2775 12.1973 12.354 12.1723 12.4256 12.1544C12.3843 12.2139 12.394 12.2151 12.3479 12.2781C12.2022 12.478 12.0469 12.679 11.8915 12.8396C11.7361 13.0002 11.5783 13.1097 11.5128 13.1347C11.1996 13.2524 9.90437 13.4773 9.71622 13.4773C9.66159 13.4773 9.22945 13.3964 9.20153 13.3821C8.99518 13.2715 8.35668 12.7921 8.35668 12.7921C8.24743 12.7052 8.09205 12.7017 7.97795 12.7825C7.97795 12.7825 7.76188 12.9408 7.51182 13.1061C7.26176 13.2715 6.93644 13.4571 6.90974 13.4678C6.60263 13.5867 5.9969 13.7818 5.67644 13.7818C5.57326 13.7818 5.26251 13.7021 4.90927 13.4773C4.6932 13.3405 4.45286 13.1382 4.21008 12.8967C4.34239 12.9015 4.4128 12.9051 4.51112 12.9063C4.5621 12.9194 4.61552 12.9194 4.6665 12.9063C4.97118 12.8932 5.30621 12.7944 5.60846 12.6969C5.93257 12.5934 6.19112 12.4875 6.19112 12.4875C6.22633 12.4744 6.2591 12.4554 6.28823 12.4304L7.06511 11.7262C7.14523 11.7535 7.18043 11.7702 7.32731 11.8118C7.53488 11.8713 7.77766 11.926 8.01679 11.9451C8.06413 11.951 8.11026 11.9546 8.16246 11.9546C8.21587 11.9546 8.26928 11.9522 8.31783 11.9451C8.33119 11.9439 8.34454 11.9367 8.35668 11.9355C8.36275 11.9343 8.37003 11.9367 8.3761 11.9355C8.58124 11.9082 8.76575 11.8499 8.92963 11.7928C9.12142 11.7262 9.26101 11.6845 9.3472 11.6691ZM8.16246 13.4011C8.32512 13.5272 8.6213 13.7652 8.90049 13.9151C9.11171 14.0281 9.33142 14.0733 9.51229 14.0864C9.12749 14.2553 8.66136 14.3909 8.16246 14.3909C7.69876 14.3909 7.23749 14.266 6.88061 14.134C6.97893 14.0995 7.06876 14.0673 7.1428 14.0388C7.36251 13.9543 7.60408 13.7806 7.86142 13.6105C8.02165 13.5046 8.07384 13.4618 8.16246 13.4011Z" fill="#2F2E2C"/>
</svg>

<svg xmlns="http://www.w3.org/2000/svg" width="16" height="16" fill="none"><path fill="#E5CCAC" d="m2.6 10.2-.6-3 .6-.6L8 6l5.5 1.5L14 9v1.2l-.6.6-2.4 2.4L8.6 15l-1.8-.6L5 13.2l-1.2-1.8-.6-.6-.6-.6Z"/><path fill="#CB3349" d="M4.875 13.6 3.5 12.5l2-.1 1.5-.9h2.5l2 .5H13l-1.25 1.2-1.875.4-1.25-.4H8l-1.875.8-1.25-.4Z"/><path fill="#F4EDAE" d="M2 7.25V6.083l.571-.583 1.143-1.75 1.143-1.167L7 1.5h3l1 .5 1.5 1.5 1 1.5 1 1v1.833L12.857 9V7.833l-1.714-.583H7.714l-4.571.583L2.5 8 2 7.25Z"/><path fill="#D6B58C" d="M3.556 10.429V8.714L3 7.571 6.889 7H13.5l-.5 3-1.111 1-2.222-.571L8.5 9l-1.056.286-.555 1.143L4.667 11l-1.111-.571Z"/><path fill="#CB3349" d="m2 9.5 1.2-2L5 7 2 9.5ZM6 8l.5-1H12L9 8V7h-.6L6 8Z"/><path fill="#2F2E2C" d="M7.978 1a4.658 4.658 0 0 0-.466.03 5.446 5.446 0 0 0-1.486.38C4.9 1.878 3.583 2.89 2.763 4.94a3.745 3.745 0 0 0-.893.467.318.318 0 0 0-.088.105c-.103.21-.122.44-.136.694-.013.254-.01.513.02.724.028.198.09.46.165.704.036.121.07.24.116.342.044.096.07.184.204.276l-1.068 1.856-.029.048a.3.3 0 0 0 .083.423.315.315 0 0 0 .432-.08s.273-.315.709-.743c.031.214.072.453.136.638.053.157.14.365.233.552.046.094.088.178.145.257.028.039.061.083.107.123a.35.35 0 0 0 .253.096c.127 0 .253-.02.398-.039.005 0 .005.002.01 0 .033.122.04.18.126.39.065.162.151.335.252.505l-.417-.019a.312.312 0 0 0-.295.157.3.3 0 0 0 .023.329c.435.567.9.97 1.32 1.237.42.266.785.409 1.107.409.083 0 .168-.01.253-.02.052.032 1.064.629 2.233.629 1.517 0 2.627-.942 2.778-1.075.302-.064.593-.143.796-.22.237-.088.418-.254.602-.447.185-.192.368-.414.525-.628.313-.428.543-.828.543-.828a.3.3 0 0 0-.02-.332.313.313 0 0 0-.32-.115l.078-.247.593-.067a.31.31 0 0 0 .242-.18s.18-.373.253-.686c.038-.16.07-.402.097-.638.027-.235.048-.408.048-.533 0-.18-.08-.234-.126-.276-.045-.041-.09-.066-.136-.095a2.665 2.665 0 0 0-.233-.124c.086-.025.175-.048.253-.076a1.13 1.13 0 0 0 .252-.114c.005-.003.005-.006.01-.01.126-.083.164-.167.214-.256.052-.093.101-.193.145-.305a3.9 3.9 0 0 0 .194-.676c.05-.272.061-.572.04-.847-.023-.274-.058-.505-.156-.704a.306.306 0 0 0-.097-.114c-.287-.215-.642-.372-.99-.495-.725-1.949-2.075-2.951-3.264-3.436a6.606 6.606 0 0 0-2.107-.466L8.162 1c.034 0-.014.002-.048 0h-.136Zm.01.61c.048 0 .079-.002.106 0h.068c.034 0 .076.004.185.01.11.004.267.011.456.037.38.051.89.157 1.438.38.98.4 2.062 1.16 2.748 2.656a26.373 26.373 0 0 0-.583-.143.308.308 0 0 0-.087-.01.309.309 0 0 0-.32.296c-.006.168.13.31.3.314a8.364 8.364 0 0 0 1.01.257c.004.001.006.008.01.01a.153.153 0 0 0 .02.009c.058.045.13.069.203.067.28.107.55.235.748.37.026.08.062.216.078.41.018.23.007.498-.03.695a3.515 3.515 0 0 1-.164.561c-.037.094-.076.181-.107.238a.295.295 0 0 1-.04.057 3.534 3.534 0 0 1-.262.086l.137-.505a.304.304 0 0 0-.224-.37s-2.117-.562-5.516-.562c-.536 0-1.022.021-1.485.047h-.01a.339.339 0 0 0-.078-.01.371.371 0 0 0-.039.01h-.019a.319.319 0 0 0-.146.02c-2.08.142-3.29.475-3.389.504h-.029a.335.335 0 0 0-.087.038.146.146 0 0 0-.02.01V7.1a.146.146 0 0 0-.02.01 8.619 8.619 0 0 1-.009.009.146.146 0 0 0-.02.01v.009a.147.147 0 0 0-.019.01v.009a.145.145 0 0 0-.02.02.376.376 0 0 0-.03.057l-.25.427a2.036 2.036 0 0 1-.069-.2 4.553 4.553 0 0 1-.136-.618 3.565 3.565 0 0 1-.02-.61 1.77 1.77 0 0 1 .06-.39c.304-.205.774-.398 1.194-.523.448-.133.806-.2.806-.2a.303.303 0 0 0-.088-.6l-.029.01s-.294.055-.66.153c.756-1.58 1.81-2.334 2.719-2.713a4.794 4.794 0 0 1 1.719-.361ZM6.919 2.818v.914h.622v-.305h.31v1.828h-.31v.609h1.243v-.61h-.31V3.428h.31v.305h.621v-.914H6.92Zm.544 4.283c-.285.125-.55.25-.747.352l.058-.324c.22-.011.45-.022.69-.028Zm2.282.028c.352.018.681.04.981.067a7.81 7.81 0 0 1-.922.276c-.174.04-.167.031-.311.057.053-.076.108-.152.155-.228.037-.06.068-.113.097-.172Zm-3.632.124-.126.685a.305.305 0 0 0 .124.313c.102.07.237.074.342.011 0 0 1.254-.678 2.447-.98-.01.015-.018.032-.029.047-.174.236-.34.438-.34.438a.303.303 0 0 0-.032.337c.06.108.18.17.304.158 0 0 .507-.056 1.137-.2.623-.143 1.376-.365 1.922-.742.716.1 1.175.204 1.35.247l-.175.647a.293.293 0 0 0-.039.172l-.368 1.36-.826.667-2.175-.267-.554-1.351a.31.31 0 0 0-.291-.19H7.541a.31.31 0 0 0-.291.19l-.564 1.38-1.903.41-.913-.467-.272-1.504c.74-.555 1.61-1.084 2.515-1.36Zm-1.767.133a11.86 11.86 0 0 0-1.622 1.142c-.014.012-.014.008-.029.02l.544-.933c.123-.035.458-.118 1.107-.229Zm6.04 1.104c-.293.01-.482.386-.466.838.016.45.26.448.554.438.394-.007.608-.132.806-.038-.003-.011-.057-.194-.33-.162a.543.543 0 0 0 .029-.276c-.037-.451-.299-.81-.593-.8Zm-4.282.105c-.294.002-.572.376-.554.828.005.118.02.206.049.267-.256.063-.327.218-.33.228.161-.086.346-.077.63-.076h.176c.293-.003.539.024.534-.428-.005-.453-.212-.821-.505-.819Zm4.253.18a.149.149 0 0 1 .155.144c.002.08-.072.15-.155.152-.082.001-.144-.071-.146-.152-.002-.081.064-.142.146-.143Zm-4.205.106c.083-.003.144.06.146.142a.15.15 0 0 1-.146.153c-.083.002-.143-.062-.145-.143a.149.149 0 0 1 .145-.152Zm7.322.104c.038.017.04.02.078.038.074.036.142.074.194.105-.006.08-.02.176-.039.343-.026.226-.057.483-.077.57-.03.131-.103.287-.156.41l-.611.076a.31.31 0 0 0-.263.21l-.252.808a10.28 10.28 0 0 1-.272.067c-.124.027-.248.047-.223.047-.192 0-1.013-.008-1.127-.009-.048-.023-.257-.112-.524-.238-.148-.07-.295-.15-.418-.21l-.233-.114a.314.314 0 0 0-.184-.047c-.021.001-.04.007-.059.01a.3.3 0 0 0-.081-.292.314.314 0 0 0-.297-.08.309.309 0 0 0-.233.21s-.032.117-.127.238c-.094.12-.21.218-.408.218-.413 0-.543-.4-.543-.4a.306.306 0 0 0-.205-.255.318.318 0 0 0-.325.071.303.303 0 0 0-.072.318.313.313 0 0 0-.234.076l-.854.771c-.03.012-.232.1-.515.19a4.59 4.59 0 0 1-.709.172c-.17-.181-.329-.474-.437-.743-.126-.314-.184-.57-.184-.57a.29.29 0 0 0-.03-.077l.545.276c.065.035.14.044.213.029l2.175-.476c.101-.02.184-.088.224-.18l.544-1.333h.815l.544 1.332a.31.31 0 0 0 .253.19l2.486.305a.315.315 0 0 0 .233-.067l1.01-.818a.308.308 0 0 0 .107-.162l.271-1.009Zm-10.43.067.253 1.323c.017.089.074.165.156.21l.272.151s-.124.02-.263.038c-.081.011-.12.012-.184.02-.02-.035-.052-.062-.078-.115a4.347 4.347 0 0 1-.194-.476 4.678 4.678 0 0 1-.107-.561c-.03-.208-.048-.38-.048-.38v-.03c.068-.059.122-.12.194-.18Zm6.303 2.617c.05.025.085.051.156.086.127.062.287.128.437.2.298.141.572.276.572.276.043.019.09.03.136.028 0 0 .987.01 1.205.01.13 0 .222-.027.359-.058.066-.014.142-.039.214-.057-.042.06-.032.061-.078.124-.146.2-.301.401-.457.562a1.41 1.41 0 0 1-.378.295c-.313.117-1.609.342-1.797.342-.054 0-.487-.08-.514-.095-.207-.11-.845-.59-.845-.59a.317.317 0 0 0-.379-.01s-.216.159-.466.324a8.57 8.57 0 0 1-.602.362c-.307.119-.913.314-1.234.314-.103 0-.413-.08-.767-.305a4.326 4.326 0 0 1-.699-.58c.132.005.203.008.301.01a.312.312 0 0 0 .155 0c.305-.014.64-.113.942-.21.325-.104.583-.21.583-.21a.32.32 0 0 0 .097-.057l.777-.704c.08.027.115.044.262.086a3.607 3.607 0 0 0 .835.143c.054 0 .107-.003.156-.01.013-.001.027-.008.039-.01.006 0 .013.002.02 0 .204-.027.389-.085.553-.142.191-.067.331-.108.417-.124Zm-1.185 1.732c.163.126.46.364.738.514.212.113.431.158.612.171-.385.17-.85.305-1.35.305-.463 0-.925-.125-1.281-.257.098-.034.188-.067.262-.095.22-.085.461-.258.718-.428.16-.106.213-.15.301-.21Z"/></svg>
